icons/skills/python.svg

<?xml version="1.0" encoding="UTF-8" standalone="no"?>
<svg
   width="px"
   height="px"
   viewBox="0 0 400 400"
   version="1.1"
   id="svg252"
   sodipodi:docname="python.svg"
   inkscape:version="1.2.2 (732a01da63, 2022-12-09)"
   xmlns:inkscape="http://www.inkscape.org/namespaces/inkscape"
   xmlns:sodipodi="http://sodipodi.sourceforge.net/DTD/sodipodi-0.dtd"
   xmlns="http://www.w3.org/2000/svg"
   xmlns:svg="http://www.w3.org/2000/svg">
  <sodipodi:namedview
     id="namedview254"
     pagecolor="#ffffff"
     bordercolor="#000000"
     borderopacity="0.25"
     inkscape:showpageshadow="2"
     inkscape:pageopacity="0.0"
     inkscape:pagecheckerboard="0"
     inkscape:deskcolor="#d1d1d1"
     showgrid="false"
     inkscape:zoom="1.4796209"
     inkscape:cx="300.7527"
     inkscape:cy="198.69954"
     inkscape:window-width="1920"
     inkscape:window-height="1017"
     inkscape:window-x="-8"
     inkscape:window-y="-8"
     inkscape:window-maximized="1"
     inkscape:current-layer="svg252" />
  <defs
     id="defs245">
    <linearGradient
       id="linear0"
       gradientUnits="userSpaceOnUse"
       x1="12.4809"
       y1="2"
       x2="12.4809"
       y2="22.7407"
       gradientTransform="scale(12.5)">
      <stop
         offset="0"
         style="stop-color:rgb(19.607843%,49.411765%,74.117647%);stop-opacity:1;"
         id="stop235" />
      <stop
         offset="1"
         style="stop-color:rgb(8.235294%,39.607843%,65.490196%);stop-opacity:1;"
         id="stop237" />
    </linearGradient>
    <linearGradient
       id="linear1"
       gradientUnits="userSpaceOnUse"
       x1="19.519"
       y1="9.25928"
       x2="19.519"
       y2="30"
       gradientTransform="scale(12.5)">
      <stop
         offset="0"
         style="stop-color:rgb(100%,85.490196%,29.411765%);stop-opacity:1;"
         id="stop240" />
      <stop
         offset="1"
         style="stop-color:rgb(97.647059%,77.647059%,0%);stop-opacity:1;"
         id="stop242" />
    </linearGradient>
  </defs>
  <g
     id="surface1"
     transform="matrix(1.1390318,0,0,1.1390318,-27.806078,-27.806349)">
    <path
       style="fill:url(#linear0);fill-rule:evenodd;stroke:none"
       d="m 162.70312,25 c -27.46093,0 -49.72656,21.554688 -49.72656,48.148438 v 33.332032 h 86.06641 v 9.26172 H 74.726562 C 47.261719,115.74219 25,137.29687 25,163.89062 v 72.21875 c 0,26.59375 22.261719,48.14844 49.726562,48.14844 h 28.687498 v -40.73828 c 0,-26.59375 22.26563,-48.14844 49.72656,-48.14844 h 91.80469 c 23.23828,0 42.07422,-18.24218 42.07422,-40.74218 V 73.148438 C 287.01953,46.554688 264.75781,25 237.29687,25 Z m -11.47265,59.257812 c 9.5039,0 17.21094,-7.460937 17.21094,-16.664062 0,-9.207031 -7.70704,-16.667969 -17.21094,-16.667969 -9.50781,0 -17.21485,7.460938 -17.21485,16.667969 0,9.203125 7.70704,16.664062 17.21485,16.664062 z m 0,0"
       id="path247" />
    <path
       style="fill:url(#linear1);fill-rule:evenodd;stroke:none"
       d="m 237.29297,375 c 27.46484,0 49.72656,-21.55469 49.72656,-48.14844 v -33.33203 h -86.06641 v -9.25781 h 124.31641 c 27.46484,0 49.72656,-21.5586 49.72656,-48.15235 v -72.21875 c 0,-26.59375 -22.26172,-48.14843 -49.72656,-48.14843 h -28.6875 v 40.73828 c 0,26.59375 -22.26172,48.14844 -49.72656,48.14844 h -91.80469 c -23.23828,0 -42.07422,18.24218 -42.07422,40.74218 v 81.48047 c 0,26.59375 22.26172,48.14844 49.72656,48.14844 z m 11.47656,-59.25781 c -9.50781,0 -17.21484,7.46093 -17.21484,16.66406 0,9.20703 7.70703,16.66797 17.21484,16.66797 9.50391,0 17.21094,-7.46094 17.21094,-16.66797 0,-9.20313 -7.70703,-16.66406 -17.21094,-16.66406 z m 0,0"
       id="path249" />
  </g>
</svg>

<?xml version="1.0" encoding="UTF-8"?>
<svg xmlns="http://www.w3.org/2000/svg" xmlns:xlink="http://www.w3.org/1999/xlink" width="px" height="px" viewBox="0 0 400 400" version="1.1">
<defs>
<linearGradient id="linear0" gradientUnits="userSpaceOnUse" x1="12.4809" y1="2" x2="12.4809" y2="22.7407" gradientTransform="matrix(12.5,0,0,12.5,0,0)">
<stop offset="0" style="stop-color:rgb(19.607843%,49.411765%,74.117647%);stop-opacity:1;"/>
<stop offset="1" style="stop-color:rgb(8.235294%,39.607843%,65.490196%);stop-opacity:1;"/>
</linearGradient>
<linearGradient id="linear1" gradientUnits="userSpaceOnUse" x1="19.519" y1="9.25928" x2="19.519" y2="30" gradientTransform="matrix(12.5,0,0,12.5,0,0)">
<stop offset="0" style="stop-color:rgb(100%,85.490196%,29.411765%);stop-opacity:1;"/>
<stop offset="1" style="stop-color:rgb(97.647059%,77.647059%,0%);stop-opacity:1;"/>
</linearGradient>
</defs>
<g id="surface1">
<path style=" stroke:none;fill-rule:evenodd;fill:url(#linear0);" d="M 162.703125 25 C 135.242188 25 112.976562 46.554688 112.976562 73.148438 L 112.976562 106.480469 L 199.042969 106.480469 L 199.042969 115.742188 L 74.726562 115.742188 C 47.261719 115.742188 25 137.296875 25 163.890625 L 25 236.109375 C 25 262.703125 47.261719 284.257812 74.726562 284.257812 L 103.414062 284.257812 L 103.414062 243.519531 C 103.414062 216.925781 125.679688 195.371094 153.140625 195.371094 L 244.945312 195.371094 C 268.183594 195.371094 287.019531 177.128906 287.019531 154.628906 L 287.019531 73.148438 C 287.019531 46.554688 264.757812 25 237.296875 25 Z M 151.230469 84.257812 C 160.734375 84.257812 168.441406 76.796875 168.441406 67.59375 C 168.441406 58.386719 160.734375 50.925781 151.230469 50.925781 C 141.722656 50.925781 134.015625 58.386719 134.015625 67.59375 C 134.015625 76.796875 141.722656 84.257812 151.230469 84.257812 Z M 151.230469 84.257812 "/>
<path style=" stroke:none;fill-rule:evenodd;fill:url(#linear1);" d="M 237.292969 375 C 264.757812 375 287.019531 353.445312 287.019531 326.851562 L 287.019531 293.519531 L 200.953125 293.519531 L 200.953125 284.261719 L 325.269531 284.261719 C 352.734375 284.261719 374.996094 262.703125 374.996094 236.109375 L 374.996094 163.890625 C 374.996094 137.296875 352.734375 115.742188 325.269531 115.742188 L 296.582031 115.742188 L 296.582031 156.480469 C 296.582031 183.074219 274.320312 204.628906 246.855469 204.628906 L 155.050781 204.628906 C 131.8125 204.628906 112.976562 222.871094 112.976562 245.371094 L 112.976562 326.851562 C 112.976562 353.445312 135.238281 375 162.703125 375 Z M 248.769531 315.742188 C 239.261719 315.742188 231.554688 323.203125 231.554688 332.40625 C 231.554688 341.613281 239.261719 349.074219 248.769531 349.074219 C 258.273438 349.074219 265.980469 341.613281 265.980469 332.40625 C 265.980469 323.203125 258.273438 315.742188 248.769531 315.742188 Z M 248.769531 315.742188 "/>
</g>
</svg>
